src/food-drink/food-asian/1F35C.svg

<svg id="emoji" viewBox="0 0 72 72" xmlns="http://www.w3.org/2000/svg">
  <g id="grid">
    <path fill="#b3b3b3" d="M68,4V68H4V4H68m4-4H0V72H72V0Z"/>
    <path fill="none" stroke="#00a5ff" stroke-miterlimit="10" stroke-width="0.1" d="M12.9231,10.9583H59.077A1.923,1.923,0,0,1,61,12.8813V59.0352a1.9231,1.9231,0,0,1-1.9231,1.9231H12.9231A1.9231,1.9231,0,0,1,11,59.0352V12.8814A1.9231,1.9231,0,0,1,12.9231,10.9583Z"/>
    <rect x="16" y="4" rx="2.2537" ry="2.2537" width="40" height="64" fill="none" stroke="#00a5ff" stroke-miterlimit="10" stroke-width="0.1"/>
    <rect x="16" y="4" rx="2.2537" ry="2.2537" width="40" height="64" transform="translate(72) rotate(90)" fill="none" stroke="#00a5ff" stroke-miterlimit="10" stroke-width="0.1"/>
    <circle cx="36" cy="36" r="29" fill="none" stroke="#00a5ff" stroke-miterlimit="10" stroke-width="0.1"/>
  </g>
  <g id="color">
    <path fill="#d22f27" d="M62.92,35.0029A1.8786,1.8786,0,0,0,61.0458,33H11.0529a1.9727,1.9727,0,0,0-1.97,2.1313c.857,9.7287,7.53,17.9843,16.7945,21.7238v5.4866A1.72,1.72,0,0,0,27.6446,64H44.3554a1.72,1.72,0,0,0,1.767-1.6583V57.4993C55.8344,54.121,62.1937,45.39,62.92,35.0029Z"/>
  </g>
  <g id="line">
    <line x1="61.4336" x2="17.4336" y1="21" y2="21" fill="none" stroke="#000000" stroke-linecap="round" stroke-linejoin="round" stroke-width="2"/>
    <line x1="61.4336" x2="17.4336" y1="13" y2="13" fill="none" stroke="#000000" stroke-linecap="round" stroke-linejoin="round" stroke-width="2"/>
    <line x1="34.2773" x2="34.4336" y1="10.8125" y2="33" fill="none" stroke="#000000" stroke-linecap="round" stroke-linejoin="round" stroke-width="1.8409"/>
    <line x1="28.2773" x2="28.4336" y1="10.8125" y2="33" fill="none" stroke="#000000" stroke-linecap="round" stroke-linejoin="round" stroke-width="1.8409"/>
    <line x1="21.2773" x2="21.4336" y1="10.8125" y2="33" fill="none" stroke="#000000" stroke-linecap="round" stroke-linejoin="round" stroke-width="1.8409"/>
    <path fill="none" stroke="#000000" stroke-linecap="round" stroke-linejoin="round" stroke-width="2" d="M62.92,35.0029A1.8786,1.8786,0,0,0,61.0458,33H11.0529a1.9727,1.9727,0,0,0-1.97,2.1313c.857,9.7287,7.53,17.9843,16.7945,21.7238v5.4866A1.72,1.72,0,0,0,27.6446,64H44.3554a1.72,1.72,0,0,0,1.767-1.6583V57.4993C55.8344,54.121,62.1937,45.39,62.92,35.0029Z"/>
  </g>
  <g id="color-foreground">
    <line x1="34.2773" x2="34.4336" y1="10.8125" y2="33" fill="none" stroke="#f1b31c" stroke-linecap="round" stroke-linejoin="round" stroke-width="1.8409"/>
    <line x1="28.2773" x2="28.4336" y1="10.8125" y2="33" fill="none" stroke="#f1b31c" stroke-linecap="round" stroke-linejoin="round" stroke-width="1.8409"/>
    <line x1="21.2773" x2="21.4336" y1="10.8125" y2="33" fill="none" stroke="#f1b31c" stroke-linecap="round" stroke-linejoin="round" stroke-width="1.8409"/>
  </g>
</svg>

<svg viewBox="0 0 72 72" xmlns="http://www.w3.org/2000/svg"><path fill="#b3b3b3" d="M68 4v64H4V4h64m4-4H0v72h72V0z"/><path fill="none" stroke="#00a5ff" stroke-miterlimit="10" stroke-width=".1" d="M12.923 10.958h46.154A1.923 1.923 0 0161 12.881v46.154a1.923 1.923 0 01-1.923 1.923H12.923A1.923 1.923 0 0111 59.035V12.881a1.923 1.923 0 011.923-1.923z"/><rect x="16" y="4" rx="2.254" ry="2.254" width="40" height="64" fill="none" stroke="#00a5ff" stroke-miterlimit="10" stroke-width=".1"/><rect x="16" y="4" rx="2.254" ry="2.254" width="40" height="64" transform="rotate(90 36 36)" fill="none" stroke="#00a5ff" stroke-miterlimit="10" stroke-width=".1"/><circle cx="36" cy="36" r="29" fill="none" stroke="#00a5ff" stroke-miterlimit="10" stroke-width=".1"/><path d="M61.434 21h-44m44-8h-44m16.843-2.187L34.434 33m-6.157-22.187L28.434 33m-7.157-22.187L21.434 33m41.486 2.003A1.879 1.879 0 0061.046 33H11.053a1.973 1.973 0 00-1.97 2.131c.857 9.729 7.53 17.985 16.794 21.724v5.487A1.72 1.72 0 0027.645 64h16.71a1.72 1.72 0 001.767-1.658v-4.843c9.712-3.378 16.072-12.109 16.798-22.496z" stroke-linecap="round" stroke-miterlimit="10" stroke-width="6" stroke="#fff" fill="none" stroke-linejoin="round"/><path fill="#d22f27" d="M62.92 35.003A1.879 1.879 0 0061.046 33H11.053a1.973 1.973 0 00-1.97 2.131c.857 9.729 7.53 17.985 16.794 21.724v5.487A1.72 1.72 0 0027.645 64h16.71a1.72 1.72 0 001.767-1.658v-4.843c9.712-3.378 16.072-12.109 16.798-22.496z"/><g fill="none" stroke="#000" stroke-linecap="round" stroke-linejoin="round"><path stroke-width="2" d="M61.434 21h-44m44-8h-44"/><path stroke-width="1.841" d="M34.277 10.813L34.434 33m-6.157-22.187L28.434 33m-7.157-22.187L21.434 33"/><path stroke-width="2" d="M62.92 35.003A1.879 1.879 0 0061.046 33H11.053a1.973 1.973 0 00-1.97 2.131c.857 9.729 7.53 17.985 16.794 21.724v5.487A1.72 1.72 0 0027.645 64h16.71a1.72 1.72 0 001.767-1.658v-4.843c9.712-3.378 16.072-12.109 16.798-22.496z"/></g><path d="M34.277 10.813L34.434 33m-6.157-22.187L28.434 33m-7.157-22.187L21.434 33" fill="none" stroke="#f1b31c" stroke-linecap="round" stroke-linejoin="round" stroke-width="1.841"/></svg>
